X:1
T:x
L:1/8
M:4/4
K:C
|C,8|D,8|E,8|F,8|G,8|A,8|B,8|C8|D8|E8|F8|G8|A8|B8|C'8|D'8|E'8|F'8|G'8|A'8|B'8|C''8|D''8|E''8|F''8|G''8|A''8|B''8|C'''8|